X: 19681
T: Jenny And The Weazel
R: reel
M: 4/4
K: Gmajor
|:DDDA AGEF|GEcE dEcE|DDDA AGEG|1 AAAG EAD2|
DDDA AGEF|GE E/E/E cE E/E/E|DDDA AGEG|AAAG EAD2:|
[2 c2cG EFGE|D3A AGEF|G/F/E cE dEcE|DDDA AGEG|AAAG EADA||
d3A ^dA=dA|c3A dAcA|d3A ^dA=dA|eaag e g/g/e A|
^dA=dA ^dA=dA|c2cA dAcA|GAcd g/f/e dc|AAAG EFGE||
faag fedf|efgf edcg|faag fedf|eaag e g/g/d a|
faag fedf|efgf g/f/e dA|GAcd g/f/e dc|A2AG EFGE||
d3e dcAB|cAdB cAGE|Addc Add2|eaag e g/e/d A|
^dA=de dcAB|cAdB cAGE|D2 E/F/G A2GE|AAGA EFD2||

